X: 1
T: I Have a Little Dreydl
C: S.E. Goldfarb
Z: 2020 John Chambers <jc:trillian.mit.edu>
M: 4/4
L: 1/8
K: C
G |\
"C"CC"G"DD "C"EC2E | "Em"GG"F"FE "G"D3D |\
"Dm"DD"A"EE "Dm"FD2D | "G7"GFED "C"C3E |
"C"GEGE GE2E | "Em"GG"F"FE "G"D3D |\
"Dm"FDFD FD2D | "G7"GGAB "C"c3z |]
